X: 15737
T: Goldies
R: slip jig
M: 9/8
K: Adorian
|:A2e ecd c2A|edc deg e3|dcA DEG GGB|DEG GAc d2 z|
A2e ecd c2A|edc deg e2g|dcA DEG GGB|DEG GAc A z2:|
|:A2c z2 A AGE|G2E z GE GGE|DED DEG GEG|A2A ABc dcA|A2c z2 A AGE|
G2E z GE GGE|1 DED DEG GEG|A2A Ade dcG:|2 ded dcA cAG|AAA Acd e z2||

